frontend/public/images/dashboards/icon_importing_white.svg

<?xml version="1.0" encoding="UTF-8"?>
<svg width="50px" height="41px" viewBox="0 0 50 41" version="1.1" xmlns="http://www.w3.org/2000/svg" xmlns:xlink="http://www.w3.org/1999/xlink">
    <!-- Generator: Sketch 52.2 (67145) - http://www.bohemiancoding.com/sketch -->
    <title>importing_white</title>
    <desc>Created with Sketch.</desc>
    <g id="Page-1" stroke="none" stroke-width="1" fill="none" fill-rule="evenodd">
        <g id="dashboard-5c" transform="translate(-495.000000, -330.000000)" fill="#FFFFFF">
            <g id="importing_white" transform="translate(495.000000, 330.000000)">
                <g id="Group-12">
                    <path d="M22.0175655,37.8419877 C21.829584,37.0708012 21.3550077,36.1409091 20.5614792,34.9837442 C19.7864407,33.8512327 18.8773498,32.7587827 18.388906,32.2071649 C18.5838213,32.0638675 19.4127889,31.5969954 21.9181818,31.6255008 C23.3365177,31.6255008 24.5869029,30.7140986 25.0283513,29.3581664 C25.1862866,28.8743451 25.5476117,28.3704931 26.072265,27.8989985 C27.0468413,27.0245763 27.5645609,25.7757319 27.4913713,24.4729584 C27.4212635,23.201772 26.7887519,22.0507704 25.7579353,21.3150231 C25.435131,21.0846687 25.072265,20.8889831 24.6793529,20.7341294 C23.4181818,20.2387519 21.9697997,20.2973035 20.7032357,20.8936055 C18.8534669,21.7649461 16.2363636,22.1871341 14.8419106,22.3612481 C14.4990755,22.4043914 14.1354391,22.3974576 13.7255778,22.3404468 C12.3126348,22.1478428 11.1192604,22.8034669 10.2009245,23.6424499 C10.2124807,20.9606317 10.9821263,18.3543143 12.3850539,16.1031587 C12.6169492,16.3874422 12.8850539,16.6470724 13.1932203,16.866641 C13.5167951,17.0985362 13.879661,17.2942219 14.2710324,17.4475347 C14.8349769,17.6694145 15.4343606,17.7818952 16.0530046,17.7818952 L16.0568567,17.7818952 C16.8049307,17.7818952 17.5637904,17.6116333 18.2486903,17.288829 C20.0984592,16.4174884 22.7155624,15.9960709 24.1107858,15.8211864 C24.453621,15.779584 24.8195686,15.7857473 25.2263482,15.8412173 C26.4597843,16.0107088 27.6616333,15.5569337 28.8010786,14.4914484 C29.8973806,13.4667951 30.494453,12.0738829 30.5368259,10.6416795 C33.5992296,12.040755 36.109245,14.4706471 37.5699538,17.5577042 L37.6046225,17.6332049 C38.3696456,19.2695686 38.8095532,21.0184129 38.9204931,22.8936055 C38.7124807,23.0430663 37.8819723,23.4914484 35.4035439,23.4667951 C33.985208,23.4667951 32.7355932,24.3774268 32.2941448,25.7325886 C32.0946071,26.3450693 31.6161787,26.8651002 31.2494607,27.1932974 C30.2756549,28.0677196 29.7587057,29.3165639 29.8318952,30.6193374 C29.9020031,31.8897535 30.5337442,33.040755 31.5645609,33.7765023 C31.8865948,34.0060863 32.2486903,34.201772 32.6431433,34.357396 C33.040678,34.51302 33.4597843,34.5954545 33.8858243,34.6416795 C31.3149461,36.829661 28.0283513,38.0754237 24.5714946,38.0754237 C23.7117103,38.0754237 22.8580894,37.9929892 22.0175655,37.8419877 M16.5006163,33.8450693 C17.3950693,34.8859014 18.1493066,35.8728043 18.6932203,36.701772 C18.6200308,36.6755778 18.5468413,36.6493837 18.4721109,36.6216487 C18.0830508,36.4760401 17.7363636,36.3219569 17.4089368,36.164792 C16.2995378,35.5261171 15.2787365,34.7402928 14.3588598,33.8127119 C13.6192604,32.9344376 12.040678,30.8273498 11.1516179,28.8543143 C10.9397535,28.301926 10.7679507,27.7248844 10.6208012,27.1247304 C11.2340524,26.0939137 12.3665639,24.6809707 13.3842835,24.8273498 C14.012943,24.9144068 14.590755,24.9221109 15.1531587,24.8520031 C16.696302,24.6593991 19.6084746,24.183282 21.7725732,23.164792 C22.416641,22.8620185 23.1416025,22.8265794 23.7602465,23.0700308 C23.9628659,23.1501541 24.1446841,23.2472265 24.3003082,23.3581664 C24.7070878,23.6493837 24.9567026,24.1062404 24.9859784,24.6124037 C25.0160247,25.1509245 24.8003082,25.6678737 24.3958398,26.0307396 C23.531433,26.807319 22.9405239,27.664792 22.6423729,28.5800462 C22.5383667,28.9005393 22.2471495,29.1147149 21.9104777,29.1147149 C19.5483821,29.0877504 17.9143297,29.4421418 16.9043143,30.1825116 C16.3411402,30.5954545 15.9859784,31.2087057 15.9058552,31.907473 C15.8265023,32.60547 16.0429892,33.3119414 16.5006163,33.8450693 M25.5083205,9.36201849 C25.6123267,9.36895223 25.714792,9.38050847 25.8180277,9.38898305 C26.0268105,9.40670262 26.2355932,9.42750385 26.4428351,9.45446841 C26.5599384,9.46910632 26.677812,9.48836672 26.7949153,9.50608629 C26.9898305,9.53690293 27.1839753,9.57080123 27.3781202,9.60855162 C27.4929122,9.6316641 27.6084746,9.655547 27.7232666,9.68097072 C27.7956857,9.69714946 27.8665639,9.71718028 27.9389831,9.73412943 C28.2117103,10.7865177 27.8966102,11.9013097 27.0861325,12.6586287 C26.5268105,13.1817411 26.012943,13.4144068 25.5661017,13.3543143 C24.9382126,13.2687982 24.3596302,13.2618644 23.7995378,13.3312018 C22.2571649,13.5238059 19.3434515,13.9983821 17.1801233,15.0184129 C16.5360555,15.3219569 15.811094,15.3558552 15.1901387,15.1116333 C14.9898305,15.0330508 14.8095532,14.9367488 14.6508475,14.8234977 C14.3473035,14.6070108 14.13698,14.3042373 14.0360555,13.9544684 C14.1608629,13.8196456 14.2864407,13.6863636 14.4158706,13.5569337 C14.5838213,13.3897535 14.7494607,13.2210324 14.9243451,13.0623267 C15.1215716,12.8835901 15.3272727,12.7179507 15.5329738,12.5507704 C15.7224961,12.3974576 15.9097072,12.2418336 16.1061633,12.0985362 C16.3103236,11.9498459 16.5229584,11.8142527 16.7348228,11.6771186 C16.9459168,11.5384438 17.1546995,11.3974576 17.3742681,11.2711094 C17.5838213,11.1493837 17.801849,11.0422958 18.0191063,10.9313559 C18.2486903,10.8134823 18.475963,10.6902157 18.7124807,10.5854391 C18.9335901,10.4868259 19.1616333,10.4051618 19.3865948,10.3173344 C19.6269646,10.224114 19.8657935,10.1247304 20.1107858,10.0438367 C20.3542373,9.96525424 20.6038521,9.9059322 20.8511556,9.83967643 C21.0869029,9.7757319 21.3195686,9.70331279 21.5583975,9.65246533 C21.8534669,9.58929122 22.1546995,9.55 22.4543914,9.50531587 C22.6523883,9.47604006 22.848074,9.43366718 23.0483821,9.41209553 C23.5514638,9.35893683 24.0599384,9.32966102 24.5714946,9.32966102 C24.8858243,9.32966102 25.1978428,9.34198767 25.5083205,9.36201849 M38.5375963,27.0931433 C38.5191063,27.1724961 38.4952234,27.2503082 38.4744222,27.329661 C38.3719569,27.7264253 38.2510015,28.1177966 38.1146379,28.503775 C38.0845917,28.58698 38.0576271,28.6717257 38.0260401,28.7549307 C37.8619414,29.1932974 37.6770416,29.6239599 37.4705701,30.0453775 C37.4359014,30.1147149 37.3966102,30.1825116 37.361171,30.2510786 C37.1816641,30.6016179 36.9859784,30.9436826 36.7764253,31.2788136 C36.7363636,31.3435285 36.696302,31.4082435 36.6546995,31.472188 C36.2563945,31.6162558 35.8858243,31.7687982 35.549923,31.9267334 C34.9066256,32.2302773 34.1824345,32.2649461 33.5622496,32.0214946 C33.3604006,31.9421418 33.1785824,31.8450693 33.022188,31.733359 C32.6154083,31.4429122 32.3657935,30.9860555 32.3380586,30.4791217 C32.3072419,29.9413713 32.5229584,29.4244222 32.9266564,29.0615562 C33.7910632,28.2849769 34.3819723,27.4275039 34.6808937,26.5114792 C34.7848998,26.1917565 35.0753467,25.9775809 35.4043143,25.9775809 L35.4043143,25.2071649 L35.4127889,25.9775809 C36.7887519,25.9891371 37.9104777,25.875886 38.8103236,25.6347458 C38.8064715,25.6601695 38.8049307,25.6863636 38.801849,25.7117874 C38.7363636,26.1771186 38.6485362,26.6378274 38.5375963,27.0931433 M41.4305085,22.7842065 C41.4305085,22.7826656 41.4297381,22.7818952 41.4297381,22.7803544 L41.425886,22.7071649 C41.3041602,20.6070108 40.8003082,18.577735 39.925886,16.6717257 L39.879661,16.5708012 C37.8442219,12.2102465 34.0599384,8.93674884 29.4744222,7.54768875 C29.4636364,7.54383667 29.4559322,7.5353621 29.4459168,7.53228043 L29.233282,7.47141757 C27.724037,7.03921418 26.1562404,6.81887519 24.5714946,6.81887519 C23.6477658,6.81887519 22.7325116,6.89514638 21.8342065,7.04152542 C17.9420647,7.68020031 14.3688752,9.66787365 11.7579353,12.7087057 L11.63698,12.8489214 C11.6238829,12.8651002 11.61849,12.8859014 11.6053929,12.9028505 C9.08305085,15.9305855 7.68782743,19.7526194 7.68782743,23.7025424 C7.68782743,24.866641 7.80801233,26.0284284 8.05300462,27.2087057 L8.05531587,27.2156394 C8.1624037,28.0577042 8.44668721,28.9459938 8.83112481,29.8173344 C8.83112481,29.8181048 8.83189522,29.8196456 8.83189522,29.8211864 C9.65392912,31.9336672 10.8765794,33.8281202 12.4867488,35.4852851 C13.5144838,36.8104006 14.9097072,37.7464561 16.2602465,38.4013097 C16.2633282,38.4028505 16.2656394,38.4043914 16.2687211,38.4059322 L16.3835131,38.4698767 C18.8750385,39.8543143 21.7070878,40.5862096 24.5714946,40.5862096 C30.0830508,40.5862096 35.233282,37.8959168 38.3973806,33.3859014 C38.4050847,33.375886 38.416641,33.3689522 38.4235747,33.3589368 L38.5167951,33.2225732 C40.4389831,30.4128659 41.4551618,27.1208783 41.4551618,23.7025424 C41.4551618,23.3966872 41.4474576,23.0916025 41.4320493,22.8381356 L41.4320493,22.8365948 C41.4312789,22.8188752 41.4312789,22.8011556 41.4305085,22.7842065" id="Fill-4" opacity="0.200000003"></path>
                    <path d="M48.1755778,0.127041602 L48.174037,0.127041602 C47.3242681,0.127041602 46.6339753,0.816563945 46.6332049,1.66710324 C46.6239599,13.935208 36.6401387,23.9097843 24.3743451,23.9097843 L24.3581664,23.9097843 C16.8635593,23.9043914 10.0230354,20.2079353 5.8959168,14.1077812 L8.15246533,14.4120955 C8.99530046,14.5230354 9.7711094,13.935208 9.88590139,13.0916025 C9.99915254,12.2487673 9.40824345,11.4729584 8.56540832,11.3589368 L2.85585516,10.58698 C2.00916795,10.4737288 1.23567026,11.0638675 1.12241911,11.907473 L0.35046225,17.6170262 C0.235670262,18.4598613 0.827349769,19.2364407 1.67095532,19.3504622 C1.74106317,19.3597072 1.8096302,19.3643297 1.87896764,19.3643297 C2.63859784,19.3643297 3.29961479,18.8026965 3.40439137,18.0299692 L3.64167951,16.270339 C8.36432974,22.9544684 16.0045455,26.9852851 24.3558552,26.9914484 L24.3743451,26.9914484 C38.3373652,26.9914484 49.7040832,15.6347458 49.714869,1.66864407 C49.7156394,0.818104777 49.0261171,0.127812018 48.1755778,0.127041602" id="Fill-6" transform="translate(25.025544, 13.559245) scale(1, -1) translate(-25.025544, -13.559245) "></path>
                    <path d="M38.9937596,25.7117103 C38.9290447,26.1770416 38.8412173,26.6377504 38.7302773,27.0930663 C38.7117874,27.1724191 38.6879045,27.2510015 38.6671032,27.3303544 C38.5638675,27.7263482 38.4436826,28.1177196 38.3065485,28.503698 C38.2772727,28.5869029 38.2503082,28.6716487 38.2187211,28.7548536 C38.0546225,29.1932203 37.8697227,29.6246533 37.6617103,30.0453005 C37.6285824,30.1146379 37.5892912,30.1824345 37.5538521,30.251772 C37.3735747,30.6015408 37.1786595,30.9436055 36.9691063,31.2795069 C36.9290447,31.3442219 36.8889831,31.4081664 36.8473806,31.4728814 C36.4490755,31.6169492 36.0785054,31.7687211 35.742604,31.9266564 C35.0993066,32.2302003 34.3751156,32.264869 33.7549307,32.0214176 C33.5530817,31.9420647 33.3712635,31.8449923 33.214869,31.733282 C32.8080894,31.4428351 32.5577042,30.9859784 32.5299692,30.4790447 C32.499923,29.9412943 32.7156394,29.4243451 33.1193374,29.0614792 C33.9837442,28.2848998 34.5746533,27.4274268 34.8728043,26.5121726 C34.9775809,26.1924499 35.2680277,25.9775039 35.5969954,25.9775039 L35.5969954,25.2070878 L35.60547,25.9775039 C36.981433,25.9890601 38.1031587,25.8758089 39.0030046,25.6346687 C38.9991525,25.6600924 38.9976117,25.6862866 38.9937596,25.7117103 M41.6247304,22.838829 L41.6247304,22.8365177 C41.6239599,22.8195686 41.6239599,22.8010786 41.6231895,22.7841294 C41.6231895,22.7825886 41.6224191,22.7818182 41.6224191,22.7802773 L41.618567,22.7070878 C41.4968413,20.6077042 40.9929892,18.5776579 40.118567,16.6724191 L40.0715716,16.5707242 C38.0369029,12.2101695 34.2526194,8.9366718 29.6671032,7.54761171 C29.6563174,7.54375963 29.6486133,7.53528505 29.6378274,7.53220339 L29.425963,7.47134052 C27.916718,7.03913713 26.3489214,6.81956857 24.7641757,6.81956857 C24.6131741,6.81956857 24.4644838,6.83343606 24.3127119,6.83728814 L24.3127119,9.34191063 C24.4637134,9.33728814 24.6131741,9.32958398 24.7641757,9.32958398 C25.0785054,9.32958398 25.3897535,9.34191063 25.7010015,9.36194145 C25.8050077,9.36887519 25.907473,9.38043143 26.0099384,9.38890601 C26.2194915,9.40662558 26.4275039,9.42742681 26.6355162,9.45439137 C26.7526194,9.46902928 26.8704931,9.48828968 26.9875963,9.50600924 C27.1825116,9.53682589 27.3766564,9.57072419 27.5708012,9.60847458 C27.6855932,9.63158706 27.8011556,9.65546995 27.9159476,9.68089368 C27.9883667,9.69707242 28.059245,9.71710324 28.1308937,9.73405239 C28.4043914,10.7864407 28.0892912,11.9012327 27.2788136,12.6585516 C26.7187211,13.1816641 26.2048536,13.4151002 25.7587827,13.3542373 C25.2479969,13.2848998 24.7749615,13.2802773 24.3127119,13.3134052 L24.3127119,15.8211094 C24.6540062,15.7802773 25.0153313,15.7864407 25.4190293,15.8411402 C26.6516949,16.0106317 27.8543143,15.5568567 28.9937596,14.4921418 C30.0892912,13.466718 30.6871341,12.0738059 30.7287365,10.6416025 C33.7919106,12.040678 36.301926,14.4705701 37.7618644,17.5576271 L37.7973035,17.6331279 C38.5615562,19.2694915 39.0022342,21.0183359 39.1131741,22.8935285 C38.9051618,23.0429892 38.0746533,23.4913713 35.596225,23.466718 C34.1778891,23.466718 32.9282743,24.3781202 32.4868259,25.7325116 C32.2872881,26.3449923 31.8088598,26.8650231 31.4421418,27.1932203 C30.4683359,28.0676425 29.9513867,29.3164869 30.0238059,30.6192604 C30.0946841,31.8904468 30.7264253,33.040678 31.7564715,33.7764253 C32.0785054,34.0067797 32.4413713,34.2024653 32.8358243,34.357319 C33.2325886,34.512943 33.6516949,34.5953775 34.0785054,34.6416025 C31.5076271,36.829584 28.2210324,38.0753467 24.7641757,38.0753467 C24.6131741,38.0753467 24.4637134,38.059168 24.3127119,38.0545455 L24.3127119,40.5714946 C24.4637134,40.5753467 24.6139445,40.5861325 24.7641757,40.5861325 C30.2757319,40.5861325 35.425963,37.8958398 38.5900616,33.3858243 C38.5977658,33.3758089 38.609322,33.3688752 38.6162558,33.3588598 L38.7094761,33.2232666 C40.6316641,30.4135593 41.6478428,27.1215716 41.6478428,23.7032357 C41.6478428,23.3966102 41.6401387,23.0915254 41.6247304,22.838829" id="Fill-8"></path>
                    <path d="M25.2211094,29.3583975 C25.3790447,28.8745763 25.7403698,28.3699538 26.2642527,27.8992296 C27.2395994,27.0248074 27.757319,25.775963 27.6841294,24.4731895 C27.6132512,23.2020031 26.98151,22.0510015 25.9506934,21.3152542 C25.6271186,21.0848998 25.2650231,20.8892142 24.8721109,20.7343606 C24.6902928,20.6627119 24.5023112,20.6064715 24.3127889,20.5579353 L24.3127889,23.2620955 C24.3705701,23.2959938 24.440678,23.3214176 24.4930663,23.3583975 C24.8998459,23.6488444 25.1494607,24.1064715 25.1779661,24.6118644 C25.2080123,25.1511556 24.9930663,25.6673344 24.5885978,26.0309707 C24.4892142,26.120339 24.4052388,26.2143297 24.3127889,26.3067797 L24.3127889,30.7605547 C24.720339,30.3861325 25.040832,29.9123267 25.2211094,29.3583975" id="Fill-10"></path>
                </g>
            </g>
        </g>
    </g>
</svg>

<svg width="50" height="41" xmlns="http://www.w3.org/2000/svg"><g fill="#FFF" fill-rule="evenodd"><path d="M22.018 37.842c-.188-.771-.663-1.701-1.457-2.858a30.782 30.782 0 0 0-2.172-2.777c.195-.143 1.024-.61 3.53-.581a3.268 3.268 0 0 0 3.11-2.268c.157-.484.519-.988 1.043-1.459a4.262 4.262 0 0 0 1.42-3.426 4.14 4.14 0 0 0-1.734-3.158 5.034 5.034 0 0 0-1.079-.58c-1.26-.496-2.71-.438-3.976.159-1.85.87-4.467 1.293-5.861 1.467a4.212 4.212 0 0 1-1.116-.02c-1.413-.193-2.607.462-3.525 1.301a14.376 14.376 0 0 1 2.184-7.539c.232.284.5.544.808.764a4.949 4.949 0 0 0 2.86.915h.004c.748 0 1.507-.17 2.192-.493 1.85-.872 4.467-1.293 5.862-1.468a4.336 4.336 0 0 1 1.115.02c1.234.17 2.436-.284 3.575-1.35a5.48 5.48 0 0 0 1.736-3.85 14.376 14.376 0 0 1 7.033 6.917l.035.075a14.282 14.282 0 0 1 1.315 5.26c-.208.15-1.038.598-3.516.574-1.419 0-2.668.91-3.11 2.266-.2.612-.678 1.132-1.045 1.46a4.263 4.263 0 0 0-1.417 3.426 4.138 4.138 0 0 0 1.733 3.158c.322.23.684.425 1.078.58.398.156.817.238 1.243.285a14.365 14.365 0 0 1-9.315 3.433c-.86 0-1.713-.082-2.553-.233M16.5 33.845c.894 1.04 1.648 2.028 2.192 2.857l-.22-.08c-.39-.146-.737-.3-1.064-.457a14.418 14.418 0 0 1-3.05-2.352c-.74-.879-2.318-2.986-3.207-4.959a14.391 14.391 0 0 1-.531-1.73c.613-1.03 1.746-2.443 2.763-2.297a6.701 6.701 0 0 0 1.77.025c1.542-.193 4.454-.669 6.619-1.687.644-.303 1.369-.338 1.987-.095.203.08.385.177.54.288.407.291.657.748.686 1.254a1.766 1.766 0 0 1-.59 1.419c-.865.776-1.455 1.634-1.754 2.549a.766.766 0 0 1-.732.535c-2.362-.027-3.996.327-5.006 1.068a2.464 2.464 0 0 0-.998 1.724c-.08.698.137 1.405.595 1.938m9.007-24.483c.104.007.207.019.31.027.209.018.418.039.625.065.117.015.235.034.352.052a16.788 16.788 0 0 1 .928.175c.073.016.144.036.216.053a2.966 2.966 0 0 1-.853 2.925c-.56.523-1.073.755-1.52.695a6.781 6.781 0 0 0-1.766-.023c-1.543.193-4.457.667-6.62 1.687-.644.304-1.369.338-1.99.094-.2-.079-.38-.175-.54-.289a1.604 1.604 0 0 1-.614-.869c.125-.134.25-.268.38-.397.168-.167.333-.336.508-.495.198-.178.403-.344.609-.511.19-.154.377-.31.573-.452.204-.15.417-.285.629-.422.21-.139.42-.28.64-.406.209-.122.427-.229.644-.34.23-.118.457-.24.693-.346.222-.098.45-.18.675-.268.24-.093.479-.192.724-.273.243-.079.493-.138.74-.204.236-.064.469-.137.707-.188.295-.063.597-.102.896-.147.198-.029.394-.071.594-.093a14.496 14.496 0 0 1 1.523-.082c.315 0 .627.012.937.032m13.03 17.731c-.019.08-.043.157-.064.237-.102.396-.223.788-.36 1.174-.03.083-.056.168-.088.25a14.43 14.43 0 0 1-.555 1.291c-.035.07-.074.138-.11.206-.18.35-.375.693-.585 1.028-.04.065-.08.13-.121.193-.399.144-.77.297-1.105.455-.643.303-1.368.338-1.988.094a2.508 2.508 0 0 1-.54-.288 1.64 1.64 0 0 1-.684-1.254 1.765 1.765 0 0 1 .589-1.417c.864-.777 1.455-1.634 1.754-2.55a.763.763 0 0 1 .723-.534v-.77l.009.77c1.376.011 2.497-.102 3.397-.343-.004.025-.005.051-.008.077a14.18 14.18 0 0 1-.264 1.381m2.893-4.309l-.001-.004-.004-.073c-.122-2.1-.626-4.13-1.5-6.035l-.046-.101a16.882 16.882 0 0 0-10.406-9.023c-.01-.004-.018-.013-.028-.016l-.213-.06a16.926 16.926 0 0 0-7.399-.43 16.878 16.878 0 0 0-10.076 5.667l-.121.14c-.013.016-.019.037-.032.054a16.885 16.885 0 0 0-3.552 14.306l.002.007c.107.842.392 1.73.776 2.601v.004a16.831 16.831 0 0 0 3.656 5.664c1.027 1.325 2.423 2.261 3.773 2.916l.009.005.115.064a16.884 16.884 0 0 0 22.014-5.084c.007-.01.019-.017.026-.027l.093-.136a16.79 16.79 0 0 0 2.915-10.385v-.001l-.001-.053" opacity=".2"/><path d="M48.176 26.991h-.002c-.85 0-1.54-.69-1.54-1.54-.01-12.268-9.994-22.242-22.26-22.242h-.016A22.224 22.224 0 0 0 5.896 13.01l2.256-.305a1.541 1.541 0 0 1 .413 3.053l-5.71.773a1.539 1.539 0 0 1-1.733-1.321L.35 9.501a1.54 1.54 0 1 1 3.054-.412l.238 1.76C8.364 4.163 16.005.132 24.356.126h.018c13.963 0 25.33 11.357 25.34 25.323.002.85-.688 1.54-1.538 1.541"/><path d="M38.994 25.712a13.95 13.95 0 0 1-.264 1.381c-.018.08-.042.158-.063.237-.103.396-.223.788-.36 1.174-.03.083-.057.168-.088.25-.164.44-.35.87-.557 1.291-.033.07-.073.137-.108.207a14.434 14.434 0 0 1-.707 1.22c-.398.145-.768.297-1.104.455-.644.303-1.368.338-1.988.094a2.508 2.508 0 0 1-.54-.288 1.642 1.642 0 0 1-.685-1.254 1.768 1.768 0 0 1 .59-1.418c.864-.776 1.455-1.634 1.753-2.549a.765.765 0 0 1 .724-.534v-.77l.008.77c1.376.011 2.498-.102 3.398-.343-.004.025-.005.051-.01.077m2.632-2.873v-.002l-.002-.053v-.004l-.004-.073c-.122-2.1-.626-4.13-1.5-6.035l-.047-.101a16.878 16.878 0 0 0-10.405-9.023c-.01-.004-.018-.013-.03-.016l-.211-.06a16.925 16.925 0 0 0-4.662-.652c-.15 0-.3.013-.451.017v2.505c.15-.005.3-.012.451-.012.315 0 .626.012.937.032.104.007.206.018.309.027.21.018.418.038.626.065.117.015.234.034.352.052a16.788 16.788 0 0 1 .928.175c.072.016.143.036.215.053a2.964 2.964 0 0 1-.852 2.925c-.56.523-1.074.756-1.52.695a6.917 6.917 0 0 0-1.446-.04v2.507c.341-.04.702-.035 1.106.02 1.233.17 2.435-.284 3.575-1.349a5.482 5.482 0 0 0 1.735-3.85 14.37 14.37 0 0 1 7.033 6.916l.035.075a14.297 14.297 0 0 1 1.316 5.26c-.208.15-1.038.598-3.517.574a3.268 3.268 0 0 0-3.11 2.266c-.199.612-.677 1.132-1.044 1.46a4.266 4.266 0 0 0-1.418 3.426 4.142 4.142 0 0 0 1.732 3.157c.323.23.685.426 1.08.581a4.8 4.8 0 0 0 1.243.285 14.365 14.365 0 0 1-9.315 3.433c-.15 0-.3-.016-.451-.02v2.516c.15.004.3.015.451.015 5.512 0 10.662-2.69 13.826-7.2.008-.01.02-.017.026-.027l.093-.136a16.79 16.79 0 0 0 2.916-10.384"/><path d="M25.221 29.358c.158-.483.52-.988 1.043-1.459a4.26 4.26 0 0 0 1.42-3.426 4.142 4.142 0 0 0-1.733-3.158 5.053 5.053 0 0 0-1.079-.58 4.711 4.711 0 0 0-.56-.177v2.704c.059.034.129.06.181.096.407.29.656.748.685 1.254.03.54-.185 1.055-.59 1.419-.099.09-.183.183-.275.276v4.454a3.28 3.28 0 0 0 .908-1.403"/></g></svg>
